X:1
T:Miss Davidson
T:Miss Davidson
T:Nathaniel Gow
C:Nathaniel Gow
L:1/8
Q:1/8=232
M:4/4
K:F
V:1 treble 
V:1
|: a | f2 af ff af | f2 af gd dg | f2 af gf af | ge fd cA Fa | f2 af ff af | f2 af gd dg | %7
 f2 af gf af | ge fd cA Fc | AF cF A2 Fc | df cf BG Gc | AF cF A2 Fc | d/e/f ce fF Fc | %13
 AF cF A2 Fc | df cA dG Gc | AF cA af ge | fd cf AFF :| %17

